icons/breezeDark/actions/22/tools-wizard.svg

<svg viewBox="0 0 22 22" xmlns="http://www.w3.org/2000/svg"><path d="m4.5 3-.53125.96875-.96875.53125.96875.53125.53125.96875.53125-.96875.96875-.53125-.96875-.53125zm5 0-.53125.96875-.96875.53125.96875.53125.53125.96875.53125-.96875.96875-.53125-.96875-.53125zm6.671875 0-13.171875 13.171875 2.828125 2.828125 13.171875-13.171875zm-.068359 1.4824219 1.414062 1.4140625-3.097656 3.0996094-1.416016-1.4160157zm-9.603516 2.5175781-.53125.96875-.96875.53125.96875.53125.53125.96875.53125-.96875.96875-.53125-.96875-.53125z" fill="#c0c0c0"/></svg>

<svg xmlns="http://www.w3.org/2000/svg" viewBox="0 0 22 22">
  <defs id="defs3051">
    <style type="text/css" id="current-color-scheme">
      .ColorScheme-Text {
        color:#c0c0c0;
      }
      </style>
  </defs>
 <path 
    style="fill:currentColor;fill-opacity:1;stroke:none" 
    d="M 4.5 3 L 3.96875 3.96875 L 3 4.5 L 3.96875 5.03125 L 4.5 6 L 5.03125 5.03125 L 6 4.5 L 5.03125 3.96875 L 4.5 3 z M 9.5 3 L 8.96875 3.96875 L 8 4.5 L 8.96875 5.03125 L 9.5 6 L 10.03125 5.03125 L 11 4.5 L 10.03125 3.96875 L 9.5 3 z M 16.171875 3 L 3 16.171875 L 5.828125 19 L 19 5.828125 L 16.171875 3 z M 16.103516 4.4824219 L 17.517578 5.8964844 L 14.419922 8.9960938 L 13.003906 7.5800781 L 16.103516 4.4824219 z M 6.5 7 L 5.96875 7.96875 L 5 8.5 L 5.96875 9.03125 L 6.5 10 L 7.03125 9.03125 L 8 8.5 L 7.03125 7.96875 L 6.5 7 z "
    class="ColorScheme-Text"
    />  
</svg>
